src/images/quiz/icon-meat.svg

<?xml version="1.0" encoding="UTF-8"?>
<svg width="64px" height="64px" viewBox="0 0 64 64" version="1.1" xmlns="http://www.w3.org/2000/svg" xmlns:xlink="http://www.w3.org/1999/xlink">
    <title>9E9EA7BF-D434-4188-B8CF-03C9CA832DD5</title>
    <g id="Site" stroke="none" stroke-width="1" fill="none" fill-rule="evenodd">
        <g id="icons" transform="translate(-120.000000, -413.000000)">
            <g id="icon-meat" transform="translate(120.000000, 413.000000)">
                <rect id="Rectangle" x="0" y="0" width="64" height="64"></rect>
                <g id="Group" transform="translate(2.000000, 2.000000)">
                    <polygon id="Path-4" fill="#9EBABA" points="8.65384615 36.256678 16.078544 35.8473411 20.4461415 33.7572318 24.4341579 28.8461538 25.403058 22.6110957 23.5572492 17.1293625 23.5572492 12.5758156 27.8808095 8.29138646 35.8121725 5.69501693 40.5138368 6.0604664 46.4902232 9.35756207 51.4834492 16.5006594 54.0551112 24.3170621 53.5966257 33.7572318 50.8318828 41.40663 45.663973 47.6300548 38.6538462 51.3838225 29.2187779 53.3977538 18.8213407 53.3977538 9.18390347 47.6300548 5.47840118 41.7991624 6.02749751 37.5986701"></polygon>
                    <polygon id="Path-3" fill="#F1F5F5" points="30 53.3977538 28.5530646 48.4615385 22.8231459 44.3374643 20.4461415 38.6557036 18.8213407 35.3483699 14.0166884 36.256678 8.85287652 36.256678 6.92262009 36.6544043 5.47840118 38.6557036 6.92262009 43.5494173 10.6185678 48.4615385 17.7392006 53.3977538 25.4733335 53.3977538"></polygon>
                    <polygon id="Path-2" fill="#F1F5F5" points="24.8076923 28.8461538 32.8384492 31.7998827 42.6923077 27.7680956 54.0551112 26.5877768 54.0551112 31.7998827 52.8652792 36.256678 48.1434543 35.3483699 40.8988424 36.256678 32.8384492 39.7889191 27.8180342 40.9266868 23.5753397 39.7889191 19.6729132 36.6544043 18.8213407 35.3483699"></polygon>
                    <circle id="Oval" fill="#F1F5F5" cx="38.6538462" cy="15.5769231" r="4.03846154"></circle>
                    <path d="M57.2238338,15.9905242 C55.0949876,10.7474473 51.124603,3.92821651 44.2903723,1.20860112 C39.2769107,-0.787552723 33.4672953,-0.308706569 27.0242184,2.62783189 C18.9680646,6.3005242 16.33268,12.8832165 19.6072953,21.1643704 C20.62268,23.7328319 20.2372953,26.5378319 18.574603,28.6678319 C16.909603,30.8012934 14.2742184,31.8524473 11.5303723,31.4993704 C7.15498764,30.9259088 3.79729533,31.906678 1.81498764,34.3389857 C0.29767995,36.2024473 -1.04539697,39.7609088 1.1688338,46.1301396 L1.21037226,46.2339857 C1.36844918,46.5789857 5.20614149,54.714755 15.0553723,57.9709088 C17.1830646,58.674755 19.3869107,58.869755 21.5180646,59.0578319 L21.8549876,59.0878319 C22.5657569,59.1512934 23.7934492,59.2332165 25.3869107,59.2332165 C29.3642184,59.2332165 35.6249876,58.7243704 41.8430646,56.1512934 C50.9019107,52.4036011 56.6492184,45.729755 58.924603,36.3143704 C60.5238338,29.6993704 59.9353723,22.6701396 57.2238338,15.9905242 L57.2238338,15.9905242 L57.2238338,15.9905242 L57.2238338,15.9905242 L57.2238338,15.9905242 L57.2238338,15.9905242 L57.2238338,15.9905242 L57.2238338,15.9905242 L57.2238338,15.9905242 L57.2238338,15.9905242 L57.2238338,15.9905242 Z M56.6815261,35.7720627 C54.589603,44.4305242 49.3003723,50.5701396 40.9603723,54.0201396 C32.7380646,57.4205242 24.41768,56.9982165 22.0603723,56.7893704 L21.7222953,56.7593704 C19.6303723,56.574755 17.6549876,56.3993704 15.7811415,55.779755 C7.26921841,52.9655242 3.63460303,45.9339857 3.32767995,45.3109088 C1.89460303,41.1536011 1.99267995,37.7774473 3.60460303,35.7962934 C5.05498764,34.0170627 7.6915261,33.324755 11.2280646,33.7874473 C14.8015261,34.2593704 18.2215261,32.8736011 20.3942184,30.0882165 C22.564603,27.3062934 23.0711415,23.6532165 21.7522953,20.3162934 C18.9184492,13.1474473 21.0138338,7.90321651 27.9807569,4.72783189 C33.8307569,2.06244728 39.0311415,1.59975497 43.4365261,3.35244728 C49.5138338,5.77090882 53.1242184,12.031678 55.084603,16.8582165 C57.6149876,23.0889857 58.1665261,29.6278319 56.6815261,35.7720627 L56.6815261,35.7720627 L56.6815261,35.7720627 L56.6815261,35.7720627 L56.6815261,35.7720627 L56.6815261,35.7720627 L56.6815261,35.7720627 L56.6815261,35.7720627 L56.6815261,35.7720627 L56.6815261,35.7720627 Z M55.1365261,27.6905242 C54.9899876,24.3905242 54.2757569,21.061678 52.9603723,17.8205242 C47.9503723,5.48590882 39.7234492,1.73360112 28.5542184,6.81860112 C26.3180646,7.83860112 19.5149876,10.9401396 23.194603,20.2470627 C24.5342184,23.6370627 24.1465261,27.2809088 22.1319107,30.2405242 C19.8507569,33.594755 15.9034492,35.349755 11.8211415,34.8109088 C8.78075687,34.404755 6.49960303,35.0082165 5.44729533,36.4909088 C4.3315261,38.0612934 4.34191072,40.7809088 5.47729533,44.146678 L5.54421841,44.304755 C6.11998764,45.4286011 9.36575687,51.1562934 16.72268,53.589755 C18.394603,54.1424473 20.2211415,54.3039857 22.15268,54.474755 L22.4792184,54.5036011 C23.45768,54.5912934 24.50768,54.6351396 25.6015261,54.6351396 C47.39768,54.6351396 53.0284492,41.0739857 54.4372953,35.2424473 C55.0165261,32.8459088 55.2369107,30.3824473 55.1457569,27.901678 C55.15268,27.8289857 55.144603,27.7609088 55.1365261,27.6905242 L55.1365261,27.6905242 L55.1365261,27.6905242 L55.1365261,27.6905242 L55.1365261,27.6905242 L55.1365261,27.6905242 L55.1365261,27.6905242 L55.1365261,27.6905242 L55.1365261,27.6905242 L55.1365261,27.6905242 Z M29.5119107,8.91860112 C32.434603,7.58590882 35.1265261,6.91090882 37.51268,6.91090882 C43.1699876,6.91090882 47.6480646,10.8743704 50.8222953,18.6882165 C51.7707569,21.024755 52.3730646,23.4086011 52.6649876,25.7878319 C47.4969107,24.3293704 38.3434492,28.8628319 36.8157569,29.649755 C29.914603,31.8443704 26.7184492,28.6978319 25.8415261,27.5843704 C26.5511415,24.9339857 26.4080646,22.1012934 25.339603,19.3989857 C22.8092184,12.9939857 26.0284492,10.5062934 29.5119107,8.91860112 L29.5119107,8.91860112 L29.5119107,8.91860112 L29.5119107,8.91860112 L29.5119107,8.91860112 L29.5119107,8.91860112 L29.5119107,8.91860112 L29.5119107,8.91860112 L29.5119107,8.91860112 L29.5119107,8.91860112 Z M38.60768,21.3928319 C41.7888338,21.3928319 44.3769107,18.804755 44.3769107,15.6236011 C44.3769107,12.4424473 41.7888338,9.85437035 38.60768,9.85437035 C35.4265261,9.85437035 32.8384492,12.4424473 32.8384492,15.6236011 C32.8384492,18.804755 35.4265261,21.3928319 38.60768,21.3928319 L38.60768,21.3928319 L38.60768,21.3928319 L38.60768,21.3928319 L38.60768,21.3928319 L38.60768,21.3928319 L38.60768,21.3928319 L38.60768,21.3928319 L38.60768,21.3928319 L38.60768,21.3928319 Z M38.60768,12.1620627 C40.5161415,12.1620627 42.0692184,13.7151396 42.0692184,15.6236011 C42.0692184,17.5320627 40.5161415,19.0851396 38.60768,19.0851396 C36.6992184,19.0851396 35.1461415,17.5320627 35.1461415,15.6236011 C35.1461415,13.7151396 36.6992184,12.1620627 38.60768,12.1620627 L38.60768,12.1620627 L38.60768,12.1620627 L38.60768,12.1620627 L38.60768,12.1620627 L38.60768,12.1620627 L38.60768,12.1620627 L38.60768,12.1620627 L38.60768,12.1620627 L38.60768,12.1620627 Z M24.0415261,31.5386011 C24.3888338,31.0286011 24.6853723,30.4978319 24.9530646,29.9578319 C26.3019107,31.1936011 28.7030646,32.7086011 32.3988338,32.7086011 C33.9149876,32.7086011 35.6492184,32.4524473 37.6153723,31.8178319 C37.6765261,31.7982165 37.7353723,31.7739857 37.7930646,31.7439857 C42.3380646,29.3762934 50.2142184,26.5009088 52.8588338,28.3678319 C52.9061415,30.5105242 52.6938338,32.634755 52.1953723,34.7012934 C52.1838338,34.7474473 52.1699876,34.7982165 52.1584492,34.8455242 C49.6453723,34.1382165 43.5507569,33.4286011 33.49268,38.2528319 C30.0530646,39.9028319 27.0830646,40.224755 24.6680646,39.2128319 C22.33268,38.2343704 21.0253723,36.2024473 20.4461415,35.0601396 C21.8365261,34.1439857 23.0688338,32.9682165 24.0415261,31.5386011 L24.0415261,31.5386011 L24.0415261,31.5386011 L24.0415261,31.5386011 L24.0415261,31.5386011 L24.0415261,31.5386011 L24.0415261,31.5386011 L24.0415261,31.5386011 L24.0415261,31.5386011 L24.0415261,31.5386011 Z M22.6857569,52.2039857 L22.3580646,52.1751396 C20.5615261,52.0170627 18.8653723,51.8670627 17.4472953,51.3986011 C11.0238338,49.2732165 8.0988338,44.199755 7.63614149,43.3251396 C6.64729533,40.3482165 6.82729533,38.5355242 7.32921841,37.8270627 C7.83114149,37.119755 9.45114149,36.8243704 11.5199876,37.0978319 C13.82768,37.4024473 16.09268,37.0782165 18.1453723,36.256678 C18.214603,36.631678 18.2872953,37.0562934 18.3542184,37.5143704 C18.94268,41.5274473 21.1834492,45.1412934 24.5007569,47.431678 C26.8753723,49.0689857 28.4803723,50.5459088 28.5530646,52.2270627 C27.6034492,52.2882165 26.6272953,52.3274473 25.6015261,52.3274473 C24.5769107,52.3262934 23.5949876,52.284755 22.6857569,52.2039857 L22.6857569,52.2039857 L22.6857569,52.2039857 L22.6857569,52.2039857 L22.6857569,52.2039857 L22.6857569,52.2039857 L22.6857569,52.2039857 L22.6857569,52.2039857 L22.6857569,52.2039857 L22.6857569,52.2039857 Z M30.8607569,52.0205242 C30.6749876,48.8936011 27.5872953,46.756678 25.8115261,45.5312934 C23.7842184,44.1328319 22.2357569,42.1459088 21.349603,39.8693704 C22.0280646,40.4289857 22.8230646,40.9378319 23.7472953,41.3289857 C26.8038338,42.6224473 30.41768,42.2878319 34.4919107,40.3332165 C43.9407569,35.8009088 49.4642184,36.5082165 51.4834492,37.0586011 C49.5657569,42.3386011 44.4380646,50.3612934 30.8607569,52.0205242 L30.8607569,52.0205242 L30.8607569,52.0205242 L30.8607569,52.0205242 L30.8607569,52.0205242 L30.8607569,52.0205242 L30.8607569,52.0205242 L30.8607569,52.0205242 L30.8607569,52.0205242 L30.8607569,52.0205242 Z" id="steak" fill="#2F484D"></path>
                </g>
            </g>
        </g>
    </g>
</svg>

<svg width="64" height="64" viewBox="0 0 64 64" xmlns="http://www.w3.org/2000/svg">
    <g fill="none" fill-rule="evenodd">
        <path d="M0 0h64v64H0z"/>
        <g transform="translate(2 2)">
            <path fill="#D9845F" d="m8.654 36.257 7.425-.41 4.367-2.09 3.988-4.91.97-6.236-1.847-5.482v-4.553l4.324-4.285 7.931-2.596 4.702.365 5.976 3.298 4.993 7.143 2.572 7.816-.458 9.44-2.765 7.65-5.168 6.223-7.01 3.754-9.435 2.014H18.82L9.184 47.63 5.478 41.8l.55-4.201z"/>
            <path fill="#F1F5F5" d="m30 53.398-1.447-4.936-5.73-4.125-2.377-5.681-1.625-3.308-4.804.909H8.853l-1.93.397-1.445 2.002 1.445 4.893 3.696 4.913 7.12 4.936h7.734z"/>
            <path fill="#F1F5F5" d="m24.808 28.846 8.03 2.954 9.854-4.032 11.363-1.18V31.8l-1.19 4.457-4.722-.909-7.244.909-8.06 3.532-5.021 1.138-4.243-1.138-3.902-3.135-.852-1.306z"/>
            <circle fill="#F1F5F5" cx="38.654" cy="15.577" r="4.038"/>
            <path d="M57.224 15.99c-2.129-5.243-6.1-12.062-12.934-14.781C39.277-.788 33.467-.31 27.024 2.628 18.968 6.3 16.333 12.883 19.607 21.164c1.016 2.569.63 5.374-1.032 7.504-1.665 2.133-4.3 3.184-7.045 2.831-4.375-.573-7.733.408-9.715 2.84-1.517 1.863-2.86 5.422-.646 11.791l.041.104c.158.345 3.996 8.48 13.845 11.737 2.128.704 4.332.899 6.463 1.087l.337.03c.71.063 1.938.145 3.532.145 3.977 0 10.238-.509 16.456-3.082 9.059-3.747 14.806-10.421 17.082-19.837 1.599-6.615 1.01-13.644-1.701-20.323zm-.542 19.782C54.59 44.431 49.3 50.57 40.96 54.02c-8.222 3.4-16.542 2.978-18.9 2.77l-.338-.03c-2.092-.185-4.067-.36-5.94-.98-8.513-2.814-12.147-9.846-12.454-10.47-1.433-4.156-1.335-7.533.277-9.514 1.45-1.779 4.087-2.471 7.623-2.009 3.574.472 6.994-.913 9.166-3.699 2.17-2.782 2.677-6.435 1.358-9.772-2.834-7.169-.738-12.413 6.229-15.588C33.83 2.062 39.03 1.6 43.437 3.352c6.077 2.419 9.687 8.68 11.648 13.506 2.53 6.231 3.082 12.77 1.597 18.914zm-1.545-8.081c-.147-3.3-.861-6.63-2.177-9.87C47.95 5.486 39.723 1.734 28.554 6.819c-2.236 1.02-9.039 4.121-5.36 13.428 1.34 3.39.953 7.034-1.062 9.994-2.281 3.354-6.229 5.109-10.31 4.57-3.041-.406-5.322.197-6.375 1.68-1.115 1.57-1.105 4.29.03 7.656l.067.158c.576 1.124 3.822 6.851 11.179 9.285 1.672.552 3.498.714 5.43.885l.326.029c.979.087 2.029.131 3.123.131 21.796 0 27.426-13.561 28.835-19.393.58-2.396.8-4.86.709-7.34.007-.073-.001-.141-.01-.211zM29.512 8.919c2.923-1.333 5.615-2.008 8-2.008 5.658 0 10.136 3.963 13.31 11.777a27.868 27.868 0 0 1 1.843 7.1c-5.168-1.459-14.322 3.075-15.85 3.862-6.9 2.194-10.097-.952-10.973-2.066.71-2.65.566-5.483-.502-8.185-2.53-6.405.688-8.893 4.172-10.48zm9.096 12.474a5.776 5.776 0 0 0 5.769-5.77 5.776 5.776 0 0 0-5.77-5.769 5.776 5.776 0 0 0-5.769 5.77 5.776 5.776 0 0 0 5.77 5.769zm0-9.23a3.466 3.466 0 0 1 3.461 3.46 3.466 3.466 0 0 1-3.461 3.462 3.466 3.466 0 0 1-3.462-3.461 3.466 3.466 0 0 1 3.462-3.462zM24.042 31.538c.347-.51.643-1.041.911-1.581 1.349 1.236 3.75 2.75 7.446 2.75 1.516 0 3.25-.256 5.216-.89.062-.02.12-.044.178-.074 4.545-2.368 12.421-5.243 15.066-3.376a24.648 24.648 0 0 1-.664 6.333l-.037.145c-2.513-.708-8.607-1.417-18.665 3.407-3.44 1.65-6.41 1.972-8.825.96-2.335-.979-3.643-3.01-4.222-4.153a12.932 12.932 0 0 0 3.596-3.521zm-1.356 20.665-.328-.029c-1.796-.158-3.493-.308-4.91-.776-6.424-2.126-9.35-7.2-9.812-8.074-.989-2.977-.809-4.79-.307-5.498.502-.707 2.122-1.003 4.191-.73a13.15 13.15 0 0 0 6.625-.84c.07.375.142.8.21 1.257a14.667 14.667 0 0 0 6.146 9.918c2.374 1.637 3.98 3.114 4.052 4.795-.95.061-1.926.1-2.951.1a33.615 33.615 0 0 1-2.916-.123zm8.175-.183c-.186-3.127-3.274-5.264-5.05-6.49a12.3 12.3 0 0 1-4.461-5.662 9.708 9.708 0 0 0 2.397 1.46c3.057 1.293 6.67.959 10.745-.996 9.449-4.532 14.972-3.825 16.991-3.274-1.917 5.28-7.045 13.302-20.622 14.962z" fill="#2F484D"/>
        </g>
    </g>
</svg>
